svgs/ytdlnis.svg

<svg width="192" height="192" viewBox="0 0 192 192" fill="none" xmlns="http://www.w3.org/2000/svg">
<path d="M101.5 64H120C165.038 64.001 170 69 170 114C170 159 165.038 163.999 120 164H72C26.962 163.999 22 159 22 114C22 69 26.962 64.001 72 64H88.5" stroke="black" stroke-width="12"/>
<path d="M85.5 96H71L96.0555 137L121.111 96H107" stroke="black" stroke-width="10" stroke-linecap="round" stroke-linejoin="round"/>
<path d="M88 96V58.3026C88 39.3577 105.013 24 126 24C146.987 24 164 39.3577 164 58.3026V73.5" stroke="black" stroke-width="10" stroke-linecap="round" stroke-linejoin="round"/>
<path d="M105 96V58.7929C105 48.9661 114.402 41 126 41C137.598 41 147 48.9661 147 58.7929V65.4216" stroke="black" stroke-width="10" stroke-linecap="round" stroke-linejoin="round"/>
</svg>

<svg width="192" height="192" viewBox="0 0 192 192" fill="none" xmlns="http://www.w3.org/2000/svg"><path d="M101.5 64H120c45.038.001 50 5 50 50s-4.962 49.999-50 50H72c-45.038-.001-50-5-50-50s4.962-49.999 50-50h16.5" stroke="#000" stroke-width="12"/><path d="M85.5 96H71l25.055 41 25.056-41H107" stroke="#000" stroke-width="12" stroke-linecap="round" stroke-linejoin="round"/><path d="M88 96V58.303C88 39.358 105.013 24 126 24s38 15.358 38 34.303v8.879" stroke="#000" stroke-width="8" stroke-linecap="round" stroke-linejoin="round"/><path d="M105 96V58.793C105 48.966 114.402 41 126 41s21 7.966 21 17.793v6.629" stroke="#000" stroke-width="8" stroke-linecap="round" stroke-linejoin="round"/></svg>
